X: 28294
T: Mrs. Sampson's Delight
R: jig
M: 6/8
K: Adorian
|:~E3 EAE|A2A BdB|d2B dBG|BAB AGF|
~E3 EAE|A2A BdB|d2B dBG|~A3 A3:|
GBd dBd|egf ~g3|fed dBd|eBA GBd|
~e3 ~e3|def ~g3|ege dBG|~A3 A3|
GBd dBd|egf ~g3|bag fed|BAB AGF|
~E3 EAE|~A3 ~B3|d2B dBG|~A3 A3||

